ui/StatusQ/src/assets/img/icons/network/Network=Arbitrum-test.svg

<svg fill="none" height="24" viewBox="0 0 25 24" width="25" xmlns="http://www.w3.org/2000/svg" xmlns:xlink="http://www.w3.org/1999/xlink"><clipPath id="a"><path d="m3.6084 2.80078h18.4v18.4h-18.4z"/></clipPath><circle cx="12.8086" cy="12" fill="#858ccc" r="12"/><g clip-path="url(#a)"><path d="m14.1708 13.3962-.8906 2.4436c-.022.0662-.022.1398 0 .2134l1.5309 4.2026 1.7738-1.0231-2.1271-5.8365c-.0515-.1324-.2355-.1324-.287 0z" fill="#9da3d6"/><path d="m15.9588 9.29077c-.0515-.13248-.2355-.13248-.287 0l-.8906 2.44353c-.0221.0662-.0221.1398 0 .2134l2.5098 6.8816 1.7737-1.023-3.1059-8.50817z" fill="#9da3d6"/><path d="m12.8092 3.93767c.0441 0 .0883.01473.1251.03681l6.7565 3.9008c.0809.04416.1251.13248.1251.2208v7.80162c0 .0883-.0515.1766-.1251.2208l-6.7565 3.9008c-.0368.0221-.081.0368-.1251.0368-.0442 0-.0883-.0147-.1251-.0368l-6.75652-3.9008c-.08096-.0442-.12512-.1325-.12512-.2208v-7.80898c0-.08832.05152-.17664.12512-.2208l6.75652-3.9008c.0368-.02209.0809-.0368.1251-.0368zm0-1.14079c-.2429 0-.4784.05888-.6992.184l-6.7565 3.9008c-.43424.25024-.6992.70655-.6992 1.20704v7.80158c0 .5005.26496.9568.6992 1.2071l6.7565 3.9008c.2134.1251.4563.184.6992.184s.4784-.0589.6992-.184l6.7565-3.9008c.4342-.2503.6992-.7066.6992-1.2071v-7.80158c0-.50049-.265-.9568-.6992-1.20704l-6.7639-3.9008c-.2134-.12512-.4563-.184-.6992-.184z" fill="#ced1eb"/><g fill="#fff"><path d="m12.2351 7.53861h-1.7149c-.1251 0-.2429.08096-.287.19872l-3.67265 10.06847 1.77376 1.023 4.04799-11.09147c.0368-.10304-.0368-.20608-.1398-.20608z"/><path d="m15.2381 7.53861h-1.7148c-.1252 0-.2429.08096-.2871.19872l-4.19518 11.49637 1.77378 1.023 4.5632-12.51937c.0368-.10304-.0368-.20608-.1399-.20608z"/></g></g></svg>

<svg width="25" height="24" viewBox="0 0 25 24" fill="none" xmlns="http://www.w3.org/2000/svg">
<circle cx="12.8086" cy="12" r="12" fill="#858CCC"/>
<g clip-path="url(#clip0_722_225208)">
<path d="M14.1708 13.3962L13.2802 15.8398C13.2582 15.906 13.2582 15.9796 13.2802 16.0532L14.8111 20.2558L16.5849 19.2327L14.4578 13.3962C14.4063 13.2638 14.2223 13.2638 14.1708 13.3962Z" fill="#9DA3D6"/>
<path d="M15.9588 9.29077C15.9073 9.15829 15.7233 9.15829 15.6718 9.29077L14.7812 11.7343C14.7591 11.8005 14.7591 11.8741 14.7812 11.9477L17.291 18.8293L19.0647 17.8063L15.9588 9.29813V9.29077Z" fill="#9DA3D6"/>
<path d="M12.8092 3.93767C12.8533 3.93767 12.8975 3.9524 12.9343 3.97448L19.6908 7.87528C19.7717 7.91944 19.8159 8.00776 19.8159 8.09608V15.8977C19.8159 15.986 19.7644 16.0743 19.6908 16.1185L12.9343 20.0193C12.8975 20.0414 12.8533 20.0561 12.8092 20.0561C12.765 20.0561 12.7209 20.0414 12.6841 20.0193L5.92758 16.1185C5.84662 16.0743 5.80246 15.986 5.80246 15.8977V8.08872C5.80246 8.0004 5.85398 7.91208 5.92758 7.86792L12.6841 3.96712C12.7209 3.94503 12.765 3.93032 12.8092 3.93032V3.93767ZM12.8092 2.79688C12.5663 2.79688 12.3308 2.85576 12.11 2.98088L5.3535 6.88168C4.91926 7.13192 4.6543 7.58823 4.6543 8.08872V15.8903C4.6543 16.3908 4.91926 16.8471 5.3535 17.0974L12.11 20.9982C12.3234 21.1233 12.5663 21.1822 12.8092 21.1822C13.0521 21.1822 13.2876 21.1233 13.5084 20.9982L20.2649 17.0974C20.6991 16.8471 20.9641 16.3908 20.9641 15.8903V8.08872C20.9641 7.58823 20.6991 7.13192 20.2649 6.88168L13.501 2.98088C13.2876 2.85576 13.0447 2.79688 12.8018 2.79688H12.8092Z" fill="#CED1EB"/>
<path d="M12.2351 7.53861H10.5202C10.3951 7.53861 10.2773 7.61957 10.2332 7.73733L6.56055 17.8058L8.33431 18.8288L12.3823 7.73733C12.4191 7.63429 12.3455 7.53125 12.2425 7.53125L12.2351 7.53861Z" fill="white"/>
<path d="M15.2381 7.53861H13.5233C13.3981 7.53861 13.2804 7.61957 13.2362 7.73733L9.04102 19.2337L10.8148 20.2567L15.378 7.73733C15.4148 7.63429 15.3412 7.53125 15.2381 7.53125V7.53861Z" fill="white"/>
</g>
<defs>
<clipPath id="clip0_722_225208">
<rect width="18.4" height="18.4" fill="white" transform="translate(3.6084 2.80078)"/>
</clipPath>
</defs>
</svg>
